X: 29453
T: Night In The Morning
R: reel
M: 4/4
K: Gmajor
|:Bc|"G"dBgB dBgB|"Am"cBAB c2 AB|cAeA cAeA|"G"BAGA B2 Bc|
"G"dBgB dBgB|"Am"cBAB cdef|"G"gdBG "D7"ecAF|"G"G2 {A}GF G2:|
|:Bc|"G"dBGB dBGB|"Am"ecAc ecAc|"G"dBGB "D7"AGFG|ABcd efed|
"G"gdBG gdBG|"Am"ecAF ecAF|"G"gdBG "D7"ecAF|"G"G2 {A}GF G2:|
|:Bc|"G"dB (3BBB gB (3BBB|dB (3BBB g2 AB|"Am"cA (3AAA eA (3AAA|cA (3AAAe2 Bc|
"G"dB (3BBB gB (3BBB|bagf agfa|"G"gdBG "D7"ecAF|"G"G2 {A}GF G2:|
|:GA|"G"BcBA GABc|dedB db (3bbb|"D7"ca (3aaa "G"Bg (3ggg|dedB d2 Bc|
"G"db (3bbb "D7"ca (3aaa|"G"Bg (3ggg "F"=f4|"G"gdBG "D7"ecAF|"G"G2 {A}GF G2:|

